!!!COM: John Bull
!!!OPR: Telluris ingens conditor
!!!OTL: [verse 4: Aeterne rerum]
!!!YOR: Musica Britannica, Vol. 14; 2nd rev. ed.;
!!!YOR: John Bull, Keyboard Music 1.
!!!YOR: London
!!!YOR: John Steele and Francis Cameron (editors)
!!!YOR: p.135
!!!YOO: Stainer and Bell
!!!YOY: 1967
**kern	**kern	**kern	**kern	**kern
*freeV	*guida	*CF	*conseq	*CFbackground
*k[b-]	*k[b-]	*k[b-]	*k[b-]	*k[b-]
*M4/4	*M4/4	*M4/4	*M4/4	*M4/4
4r	4r	2f	2r	2f
4F	4c	.	.	.
=1	=1	=1	=1	=1
4D	4B-	2f	4r	2f
4F	4A	.	4ff	.
4C	4.c	2g	4ee	2g
4G	.	.	4dd	.
.	8B-	.	.	.
=2	=2	=2	=2	=2
4F	4A	2a	4.ff	2a
4D	2d	.	.	.
.	.	.	8ee	.
4G	.	4b-	4dd	2b-
4E	4c	8g	[4gg	.
.	.	8a	.	.
=3	=3	=3	=3	=3
2D	4d	8b-	4gg]	2a
.	.	8cc	.	.
.	4fn	4a	4ff#	.
2G	4e	2g	4gg	2g
.	[4d	.	4bb-	.
=4	=4	=4	=4	=4
4F	8d]	2a	4aa	2a
.	8e	.	.	.
4E	4c#	.	4.gg	.
2D	4.d	2a	.	2a
.	.	.	8aa	.
.	.	.	4ff#	.
.	8cn	.	.	.
=5	=5	=5	=5	=5
2G	4B-	2g	4.gg	2g
.	4d	.	.	.
.	.	.	8ff	.
4A	4.c	2cc	4ee	2cc
4E	.	.	4gg	.
.	8B-	.	.	.
=6	=6	=6	=6	=6
4F	4A	2cc	4.ff	2cc
4C	4G	.	.	.
.	.	.	8ee	.
2E	4r	2g	4dd	2g
.	4c	.	4cc	.
=7	=7	=7	=7	=7
4F	8B-	2a	4r	2a
.	8A	.	.	.
4D	2d	.	4ff	.
4G	.	4b-	8ee	2g
.	.	.	8dd	.
4E	4c#	8a	[4gg	.
.	.	8g	.	.
=8	=8	=8	=8	=8
2D	4r	2a	4gg]	2a
.	2d	.	4ff#	.
4G	.	2g	4r	2g
4B-	8c	.	[4gg	.
.	8B-	.	.	.
=9	=9	=9	=9	=9
2A	8c#	2a	4gg]	2a
.	4d	.	.	.
.	.	.	8ff	.
.	8c#	.	8ee	.
2D	2d	2a	8ff#	2a
.	.	.	4gg	.
.	.	.	8ff#	.
=10	=10	=10	=10	=10
2E	4G	2g	2gg	2g
.	2c	.	.	.
2F	.	[2a	4cc	2a
.	4B-	.	[4ff	.
=11	=11	=11	=11	=11
4F	4A	4a]	4ff]	2g
4C	2A	4g	4ee	.
4D	.	4f	4dd	2f
4BB-	4G	4d	[4dd	.
=12	=12	=12	=12	=12
2AA	4r	2e	4dd]	2e
.	4A	.	4cc#	.
2D	8B-	2f	4r	2f
.	8A	.	.	.
.	[4d	.	4ff	.
=13	=13	=13	=13	=13
2E	8d]	2g	8ee	2g
.	8c	.	8dd	.
.	2c	.	4.gg	.
4F	.	4a	.	2a
.	.	.	8ff	.
4D	4B-	8g	[4ff	.
.	.	8f	.	.
=14	=14	=14	=14	=14
2C	4.c	4a	4ff]	2g
.	.	4g	4ee	.
.	8B-	.	.	.
[2D	4A	[2f	4.ff	2f
.	4G	.	.	.
.	.	.	8ee	.
=15	=15	=15	=15	=15
4D]	2A	4f]	4dd	2e
4AA	.	4e	4cc	.
4D	4r	2f	2dd	2f
4F	4A	.	.	.
=16	=16	=16	=16	=16
4E	8B-	2g	4r	2g
.	8G	.	.	.
4G	8A	.	4dd	.
.	8B-	.	.	.
2C	8c	2e	8ee	2e
.	8B-	.	8cc	.
.	8A	.	8dd	.
.	[8G	.	8ee	.
=17	=17	=17	=17	=17
2D	4G]	2d	8ffn	2d
.	.	.	8ee	.
.	4F#	.	8dd	.
.	.	.	[8cc	.
[2GG	[2G	[2d	4cc]	[2d
.	.	.	8bn	.
.	.	.	8a	.
=18	=18	=18	=18	=18
1GG;]	1G;]	1d;]	1bn;	1d;]
==	==	==	==	==
*-	*-	*-	*-	*-
!!!COA: Thomas Tallis
!!!CDT: ~1562-1628/3/12/|13
!!!CNT: English
!!!YEP: David Huron and Denis Collins
!!!YEN: Canada
!!!AIN: cemba; clavi; klav; organ
!!!AGN: keyboard
!!!AST: polyphony
!!!RDT: 1995 April 17
!!!YED: 1995 August 31
!!!AFR: cantus firmus canon
!!!AMT: simple quadruple
!!!EEV: 1.0
